lib/brands/icons/fuchsia.svg

<svg xmlns="http://www.w3.org/2000/svg" fill="none" aria-hidden="true" viewBox="0 0 48 48"><g id="fuchsia-Icon"><path id="Vector" fill="#ED1D7F" d="M20.9962 7.94069C29.8437 7.36524 37.4683 14.0548 38.1157 22.8304C38.1157 23.4778 38.1157 24.1252 38.1157 24.7725C38.1157 24.9883 37.9719 25.1322 37.7561 25.1322C37.6841 25.1322 37.6841 25.1322 37.6841 25.1322C37.5403 25.1322 37.4683 25.0603 37.3964 24.9883C37.3245 24.9164 37.3245 24.7725 37.3245 24.7006C37.3964 24.1252 37.3964 23.4778 37.3245 22.9023C36.749 14.4864 29.484 8.15648 21.0681 8.73193C12.6522 9.30738 6.32223 16.5724 6.89768 24.9883C7.47313 33.4043 14.7382 39.7342 23.0102 39.1587C24.6646 39.0149 26.1752 38.6552 27.6857 38.0798C27.7577 38.0798 27.7577 38.0798 27.8296 38.0798C28.0454 38.0078 28.1893 38.1517 28.2612 38.2956C28.3331 38.5114 28.2612 38.7271 28.0454 38.7991C26.4629 39.4465 24.8085 39.8061 23.1541 39.95C14.3066 40.5974 6.60996 33.9078 6.03451 25.0603C5.45906 16.2127 12.1486 8.58807 20.9962 7.94069ZM39.3386 27.5778C40.993 28.8726 42 30.8147 42 33.0446C42 36.9289 38.6192 40.0938 34.8069 40.0938C30.9946 40.0938 27.8296 37.0008 27.8296 33.1165C27.8296 31.606 28.3331 30.2393 29.1244 29.0884C31.8577 25.1322 30.9226 19.6654 26.9664 16.8601C23.0102 14.1268 17.5435 15.0619 14.7382 19.0181C12.0048 22.9743 12.9399 28.441 16.8961 31.2463C20.133 33.4762 24.305 33.2604 27.2541 31.0305C26.8945 32.3972 26.8945 33.8358 27.2541 35.1306C23.4418 37.0008 18.6944 36.785 14.954 34.1236C9.34333 30.1674 8.04858 22.5427 11.9328 17.004C15.8891 11.3934 23.5137 10.0986 29.0524 13.9829C34.663 17.9391 35.9578 25.5638 32.0735 31.1025C31.6419 31.6779 31.4261 32.3972 31.4261 33.1165C31.4261 35.0587 33.0086 36.6411 34.9508 36.6411C36.8929 36.6411 38.4754 35.0587 38.4754 33.1165C38.4754 32.0376 37.9719 31.0305 37.1806 30.3832C36.6052 29.8796 35.8859 29.5919 35.0227 29.5919C34.735 29.5919 34.4472 29.5919 34.1595 29.6638C34.663 28.5129 35.0227 27.3621 35.2385 26.0673C36.749 26.0673 38.1877 26.6427 39.3386 27.5778Z"/></g></svg>

<svg xmlns="http://www.w3.org/2000/svg" fill="none" aria-hidden="true" viewBox="0 0 48 48"><path fill="#ED1D7F" d="M20.996 7.94c8.848-.575 16.472 6.115 17.12 14.89v1.943c0 .215-.144.36-.36.36h-.072c-.144 0-.216-.073-.288-.145-.072-.072-.072-.215-.072-.287a7.523 7.523 0 0 0 0-1.799c-.575-8.416-7.84-14.746-16.256-14.17-8.416.575-14.746 7.84-14.17 16.256.575 8.416 7.84 14.746 16.112 14.17a17.03 17.03 0 0 0 4.676-1.078h.144c.215-.072.36.072.431.216.072.215 0 .431-.216.503-1.582.648-3.237 1.007-4.89 1.151-8.848.647-16.545-6.042-17.12-14.89-.576-8.847 6.114-16.472 14.961-17.12ZM39.34 27.579A6.851 6.851 0 0 1 42 33.045c0 3.884-3.38 7.049-7.193 7.049-3.812 0-6.977-3.093-6.977-6.977 0-1.511.503-2.878 1.294-4.029 2.734-3.956 1.799-9.423-2.158-12.228-3.956-2.733-9.422-1.798-12.228 2.158-2.733 3.956-1.798 9.423 2.158 12.228a8.85 8.85 0 0 0 10.358-.215c-.36 1.366-.36 2.805 0 4.1a12.071 12.071 0 0 1-12.3-1.007c-5.61-3.957-6.905-11.581-3.021-17.12 3.956-5.61 11.58-6.905 17.12-3.021 5.61 3.956 6.905 11.58 3.02 17.12a3.364 3.364 0 0 0-.647 2.014 3.53 3.53 0 0 0 3.525 3.524 3.53 3.53 0 0 0 3.524-3.524 3.557 3.557 0 0 0-1.294-2.734c-.576-.503-1.295-.791-2.158-.791-.288 0-.576 0-.864.072a14.878 14.878 0 0 0 1.08-3.597c1.51 0 2.949.576 4.1 1.51Z"/></svg>
